public/svg/maxTrack.svg

<svg width="163" height="98" viewBox="0 0 163 98" fill="none" xmlns="http://www.w3.org/2000/svg">
<path d="M0 16C0 7.1634 7.1634 0 16 0H146.857C155.694 0 162.857 7.1634 162.857 16V81.7143C162.857 90.551 155.694 97.714 146.857 97.714H16C7.1635 97.714 0 90.551 0 81.7143V16Z" fill="#23384A"/>
<path fill-rule="evenodd" clip-rule="evenodd" d="M46.9245 46.0685C46.4693 46.7462 46.2108 47.5983 46.1487 48.625H50.555C50.6378 47.7626 50.9274 47.1466 51.4239 46.777C51.9204 46.4073 52.6031 46.2225 53.4719 46.2225C53.865 46.2225 54.2322 46.2482 54.5735 46.2995C54.9149 46.3509 55.2148 46.4535 55.4734 46.6075C55.732 46.7616 55.9389 46.9772 56.094 47.2544C56.2492 47.5316 56.3267 47.9063 56.3267 48.3786L56.3288 48.481C56.3258 48.8827 56.1907 49.1925 55.9233 49.4105C55.6337 49.6466 55.2407 49.8263 54.7442 49.9495C54.2477 50.0727 53.6788 50.1651 53.0375 50.2267L52.5546 50.2768C52.0697 50.3307 51.5791 50.3961 51.0826 50.4731C50.4206 50.5758 49.7638 50.7144 49.1121 50.8889C48.4605 51.0635 47.8812 51.3253 47.3744 51.6744C46.8676 52.0235 46.4538 52.4906 46.1332 53.0759C45.8125 53.6611 45.6522 54.4054 45.6522 55.309C45.6522 56.1303 45.7918 56.8388 46.0711 57.4343C46.3504 58.0298 46.7383 58.5226 47.2348 58.9127C47.7313 59.3029 48.3105 59.5904 48.9725 59.7752C49.6345 59.96 50.3482 60.0524 51.1136 60.0524C52.1066 60.0524 53.0789 59.9086 54.0305 59.6212C54.9821 59.3337 55.8096 58.8306 56.5129 58.1119C56.5336 58.3788 56.5698 58.6406 56.6215 58.8973C56.6733 59.154 56.7405 59.4056 56.8232 59.652H61.292C61.085 59.3234 60.94 58.8306 60.857 58.1735C60.774 57.5164 60.733 56.8285 60.733 56.1098V47.8242C60.733 46.8591 60.516 46.0839 60.081 45.4987C59.647 44.9135 59.0885 44.4566 58.4058 44.128C57.7231 43.7995 56.9681 43.5787 56.1406 43.4658C55.3131 43.3529 54.4959 43.2964 53.6891 43.2964C52.7996 43.2964 51.9152 43.3837 51.036 43.5582C50.1568 43.7327 49.3655 44.0254 48.6622 44.436C47.9588 44.8467 47.3796 45.3909 46.9245 46.0685ZM18.8301 59.6523V43.728H22.9882V45.8841H23.0502C23.6295 45.0627 24.3277 44.4261 25.1448 43.9744C25.962 43.5226 26.898 43.2967 27.9531 43.2967C28.9668 43.2967 29.8925 43.4918 30.7303 43.882C31.5682 44.2721 32.2043 44.96 32.6387 45.9457C33.1145 45.2475 33.761 44.6315 34.5781 44.0976C35.3953 43.5637 36.3624 43.2967 37.4795 43.2967C38.3277 43.2967 39.1138 43.3994 39.8378 43.6047C40.5619 43.8101 41.1825 44.1386 41.6997 44.5904C42.2168 45.0421 42.6202 45.6325 42.9099 46.3615C43.1995 47.0904 43.3443 47.9683 43.3443 48.995V59.6523H38.9379V50.6275C38.9379 50.0936 38.9172 49.5905 38.8759 49.1182C38.8345 48.6459 38.7207 48.2352 38.5345 47.8861C38.3484 47.5371 38.0742 47.2599 37.7122 47.0545C37.3502 46.8492 36.8589 46.7465 36.2383 46.7465C35.6177 46.7465 35.116 46.8646 34.7333 47.1007C34.3506 47.3369 34.0506 47.6449 33.8334 48.0248C33.6162 48.4046 33.4714 48.8359 33.399 49.3184C33.3266 49.801 33.2904 50.2887 33.2904 50.7815V59.6523H28.884V50.7199C28.884 50.2476 28.8737 49.7804 28.853 49.3184C28.8323 48.8564 28.7444 48.4303 28.5892 48.0402C28.4341 47.65 28.1755 47.3369 27.8134 47.1007C27.4514 46.8646 26.9187 46.7465 26.2154 46.7465C26.0085 46.7465 25.7344 46.7927 25.3931 46.8851C25.0517 46.9775 24.7207 47.152 24.4001 47.4087C24.0794 47.6654 23.8053 48.035 23.5778 48.5176C23.3502 49.0001 23.2364 49.6316 23.2364 50.4119V59.6523H18.8301ZM56.3271 51.8594C56.1409 52.0237 55.9082 52.152 55.6289 52.2444C55.3497 52.3368 55.0497 52.4138 54.7291 52.4754C54.4886 52.5216 54.2394 52.562 53.9814 52.5967L53.7206 52.6294C53.3689 52.6705 53.0172 52.7218 52.6655 52.7834C52.3345 52.845 52.0087 52.9272 51.6881 53.0298C51.3674 53.1325 51.0881 53.2711 50.8502 53.4457C50.6123 53.6202 50.421 53.8409 50.2762 54.1079C50.1313 54.3748 50.0589 54.7136 50.0589 55.1243C50.0589 55.5145 50.1313 55.843 50.2762 56.11C50.421 56.3769 50.6175 56.5874 50.8657 56.7414C51.114 56.8954 51.4036 57.0032 51.7346 57.0648C52.0656 57.1264 52.4069 57.1572 52.7586 57.1572C53.6275 57.1572 54.2998 57.0135 54.7756 56.726C55.2514 56.4385 55.6031 56.0946 55.8306 55.6942C56.0582 55.2937 56.1978 54.8882 56.2496 54.4775C56.3013 54.0668 56.3271 53.7383 56.3271 53.4919V51.8594ZM62.482 43.7271L67.757 51.2735L61.986 59.6515H66.92L70.271 54.6308L73.622 59.6515H78.649L72.722 51.1811L77.997 43.7271H73.126L70.333 47.8853L67.509 43.7271H62.482Z" fill="#E54C65"/>
<path fill-rule="evenodd" clip-rule="evenodd" d="M133.085 37.6602H128.679V59.6524H133.085V54.1697L134.792 52.5373L139.198 59.6524H144.536L137.802 49.5803L143.853 43.728H138.64L133.085 49.4571V37.6602ZM81.0613 38.9537V43.7279H84.2893V46.654H81.0613V54.5392C81.0613 55.2785 81.1853 55.7713 81.4343 56.0177C81.6823 56.2641 82.1783 56.3873 82.9233 56.3873C83.1713 56.3873 83.4093 56.377 83.6373 56.3565C83.8643 56.336 84.0823 56.3052 84.2893 56.2641V59.6523C83.9163 59.7139 83.5023 59.7549 83.0473 59.7755C82.5923 59.796 82.1473 59.8063 81.7133 59.8063C81.0303 59.8063 80.3843 59.7601 79.7743 59.6677C79.1633 59.5753 78.6253 59.3956 78.1603 59.1286C77.6943 58.8617 77.3273 58.4818 77.0583 57.989C76.7893 57.4962 76.6553 56.8493 76.6553 56.0485V46.654H73.9863V43.7279H76.6553V38.9537H81.0613ZM85.9143 59.653V43.7287H90.1033V46.6856H90.1663C90.3723 46.1928 90.6523 45.7359 91.0033 45.315C91.3553 44.894 91.7583 44.5347 92.2143 44.2369C92.6693 43.9392 93.1553 43.7082 93.6723 43.5439C94.1893 43.3796 94.7273 43.2975 95.2863 43.2975C95.5753 43.2975 95.8963 43.3488 96.2483 43.4515V47.5173C96.0413 47.4762 95.7923 47.4403 95.5033 47.4095C95.2133 47.3787 94.9343 47.3633 94.6653 47.3633C93.8583 47.3633 93.1763 47.4967 92.6173 47.7637C92.0583 48.0306 91.6083 48.3951 91.2673 48.8571C90.9263 49.3192 90.6833 49.8582 90.5383 50.4742C90.3933 51.0902 90.3213 51.7576 90.3213 52.4763V59.653H85.9143ZM96.3443 48.6261C96.4063 47.5994 96.6653 46.7472 97.1203 46.0696C97.5753 45.392 98.1543 44.8478 98.8583 44.4371C99.5613 44.0264 100.352 43.7338 101.232 43.5593C102.111 43.3847 102.995 43.2975 103.885 43.2975C104.691 43.2975 105.509 43.3539 106.336 43.4669C107.164 43.5798 107.919 43.8006 108.601 44.1291C109.284 44.4577 109.843 44.9145 110.277 45.4998C110.711 46.085 110.929 46.8602 110.929 47.8253V56.1109C110.929 56.8296 110.97 57.5175 111.053 58.1746C111.135 58.8317 111.28 59.3245 111.487 59.653H107.019C106.936 59.4066 106.869 59.1551 106.817 58.8984C106.765 58.6417 106.729 58.3799 106.708 58.113C106.005 58.8317 105.178 59.3348 104.226 59.6222C103.274 59.9097 102.302 60.0535 101.309 60.0535C100.544 60.0535 99.8303 59.9611 99.1683 59.7763C98.5063 59.5914 97.9273 59.304 97.4303 58.9138C96.9343 58.5237 96.5463 58.0308 96.2673 57.4353C95.9873 56.8398 95.8483 56.1314 95.8483 55.31C95.8483 54.4065 96.0083 53.6622 96.3293 53.0769C96.6493 52.4917 97.0633 52.0246 97.5703 51.6755C98.0773 51.3264 98.6563 51.0646 99.3083 50.89C99.9593 50.7155 100.616 50.5769 101.278 50.4742C101.775 50.3972 102.265 50.3318 102.75 50.2779L103.233 50.2278C103.874 50.1662 104.443 50.0738 104.94 49.9506C105.436 49.8274 105.829 49.6477 106.119 49.4116C106.386 49.1936 106.521 48.8837 106.524 48.482L106.522 48.3797C106.522 47.9074 106.445 47.5327 106.29 47.2555C106.134 46.9782 105.928 46.7626 105.669 46.6086C105.41 46.4546 105.11 46.3519 104.769 46.3006C104.428 46.2493 104.061 46.2236 103.667 46.2236C102.799 46.2236 102.116 46.4084 101.619 46.778C101.123 47.1477 100.833 47.7637 100.751 48.6261H96.3443ZM105.824 52.2448C106.104 52.1524 106.336 52.0241 106.523 51.8598V53.4923C106.523 53.7387 106.497 54.0672 106.445 54.4779C106.393 54.8886 106.254 55.2942 106.026 55.6946C105.799 56.095 105.447 56.4389 104.971 56.7264C104.495 57.0139 103.823 57.1576 102.954 57.1576C102.602 57.1576 102.261 57.1268 101.93 57.0652C101.599 57.0036 101.31 56.8958 101.061 56.7418C100.813 56.5878 100.616 56.3773 100.472 56.1104C100.327 55.8434 100.254 55.5149 100.254 55.1247C100.254 54.7141 100.327 54.3752 100.472 54.1083C100.616 53.8414 100.808 53.6206 101.046 53.4461C101.284 53.2715 101.563 53.1329 101.884 53.0302C102.204 52.9276 102.53 52.8454 102.861 52.7838C103.213 52.7222 103.564 52.6709 103.916 52.6298L104.177 52.5971C104.435 52.5625 104.684 52.522 104.925 52.4758C105.245 52.4142 105.545 52.3372 105.824 52.2448ZM123.325 49.3346H127.638C127.576 48.3078 127.328 47.4197 126.893 46.6702C126.459 45.9207 125.895 45.2944 125.202 44.7913C124.509 44.2882 123.723 43.9135 122.844 43.6671C121.965 43.4207 121.049 43.2975 120.098 43.2975C118.794 43.2975 117.636 43.5131 116.622 43.9443C115.608 44.3755 114.75 44.9761 114.047 45.7462C113.343 46.5162 112.811 47.43 112.449 48.4875C112.086 49.545 111.905 50.6898 111.905 51.9219C111.905 53.1129 112.102 54.2063 112.495 55.2022C112.888 56.1982 113.436 57.0555 114.14 57.7742C114.843 58.4929 115.696 59.0524 116.7 59.4528C117.703 59.8533 118.805 60.0535 120.004 60.0535C122.135 60.0535 123.883 59.499 125.249 58.3902C126.614 57.2813 127.441 55.6694 127.731 53.5544H123.48C123.335 54.54 122.978 55.3254 122.409 55.9107C121.84 56.4959 121.028 56.7885 119.973 56.7885C119.291 56.7885 118.712 56.6345 118.236 56.3265C117.76 56.0185 117.382 55.6232 117.103 55.1406C116.824 54.6581 116.622 54.1191 116.498 53.5236C116.374 52.9281 116.312 52.3428 116.312 51.7679C116.312 51.1724 116.374 50.5718 116.498 49.966C116.622 49.3602 116.834 48.8058 117.134 48.3027C117.434 47.7996 117.822 47.3889 118.298 47.0706C118.774 46.7524 119.363 46.5932 120.067 46.5932C121.949 46.5932 123.035 47.507 123.325 49.3346Z" fill="white"/>
</svg>

<svg xmlns="http://www.w3.org/2000/svg" width="163" height="98" fill="none" xmlns:v="https://vecta.io/nano"><path d="M0 16C0 7.163 7.163 0 16 0h130.857c8.837 0 16 7.163 16 16v65.714c0 8.837-7.163 16-16 16H16c-8.836 0-16-7.163-16-16V16z" fill="#23384a"/><g fill-rule="evenodd"><path d="M46.925 46.069c-.455.678-.714 1.53-.776 2.557h4.406c.083-.862.372-1.478.869-1.848s1.179-.555 2.048-.555a7.42 7.42 0 0 1 1.102.077c.341.051.641.154.9.308s.465.37.621.647.233.652.233 1.124l.002.102c-.003.402-.138.712-.406.929-.29.236-.683.416-1.179.539s-1.065.216-1.707.277l-.483.05-1.472.196a18.69 18.69 0 0 0-1.971.416c-.652.175-1.231.436-1.738.785a4 4 0 0 0-1.241 1.401c-.321.585-.481 1.33-.481 2.233 0 .821.14 1.53.419 2.125a4.02 4.02 0 0 0 1.164 1.478c.496.39 1.076.678 1.738.862s1.376.277 2.141.277c.993 0 1.965-.144 2.917-.431a5.75 5.75 0 0 0 2.482-1.509c.021.267.057.529.109.785s.119.508.202.755h4.469c-.207-.329-.352-.821-.435-1.479a16.47 16.47 0 0 1-.124-2.064v-8.286c0-.965-.217-1.74-.652-2.325s-.992-1.042-1.675-1.371-1.438-.549-2.265-.662a18.12 18.12 0 0 0-2.451-.169c-.89 0-1.774.087-2.653.262s-1.671.467-2.374.878-1.283.955-1.738 1.633zM18.83 59.652V43.728h4.158v2.156h.062c.579-.821 1.277-1.458 2.095-1.91s1.753-.678 2.808-.678c1.014 0 1.939.195 2.777.585s1.474 1.078 1.908 2.064c.476-.698 1.122-1.314 1.939-1.848s1.784-.801 2.901-.801c.848 0 1.634.103 2.358.308s1.345.534 1.862.986.92 1.042 1.21 1.771.434 1.607.434 2.633v10.657h-4.406v-9.025l-.062-1.509c-.041-.472-.155-.883-.341-1.232a2.06 2.06 0 0 0-.822-.832c-.362-.205-.853-.308-1.474-.308s-1.122.118-1.505.354-.683.544-.9.924a3.68 3.68 0 0 0-.434 1.294 9.85 9.85 0 0 0-.109 1.463v8.871h-4.406V50.72l-.031-1.402c-.021-.462-.109-.888-.264-1.278a1.97 1.97 0 0 0-.776-.939c-.362-.236-.895-.354-1.598-.354-.207 0-.481.046-.822.139s-.672.267-.993.524-.595.626-.822 1.109-.341 1.114-.341 1.894v9.24H18.83zm37.497-7.793a1.98 1.98 0 0 1-.698.385 7.17 7.17 0 0 1-.9.231l-.748.121-.261.033-1.055.154c-.331.062-.657.144-.977.246s-.6.241-.838.416a1.98 1.98 0 0 0-.574.662c-.145.267-.217.606-.217 1.016 0 .39.072.719.217.986s.341.477.589.631a2.5 2.5 0 0 0 .869.323c.331.062.672.092 1.024.092.869 0 1.541-.144 2.017-.431s.828-.631 1.055-1.032.367-.806.419-1.217l.078-.986v-1.633zm6.155-8.132l5.275 7.546-5.771 8.378h4.934l3.351-5.021 3.351 5.021h5.027l-5.927-8.47 5.275-7.454h-4.871l-2.793 4.158-2.824-4.158h-5.027z" fill="#e54c65"/><path d="M133.085 37.66h-4.406v21.992h4.406V54.17l1.707-1.632 4.406 7.115h5.338l-6.734-10.072 6.051-5.852h-5.213l-5.555 5.729V37.66zm-52.024 1.293v4.774h3.228v2.926h-3.228v7.885c0 .739.124 1.232.373 1.478s.744.37 1.489.37l.714-.031a6.23 6.23 0 0 0 .652-.092v3.388c-.373.062-.787.103-1.242.123l-1.334.031c-.683 0-1.329-.046-1.939-.139s-1.149-.272-1.614-.539a2.86 2.86 0 0 1-1.102-1.14c-.269-.493-.403-1.14-.403-1.94v-9.394h-2.669v-2.926h2.669v-4.774h4.406zm4.853 20.699V43.729h4.189v2.957h.063c.206-.493.486-.95.837-1.371s.755-.78 1.211-1.078.941-.529 1.458-.693 1.055-.246 1.614-.246c.289 0 .61.051.962.154v4.066a8.56 8.56 0 0 0-.745-.108c-.29-.031-.569-.046-.838-.046-.807 0-1.489.133-2.048.4s-1.009.631-1.35 1.093-.584 1.001-.729 1.617a8.73 8.73 0 0 0-.217 2.002v7.177h-4.407zm10.43-11.027c.062-1.027.321-1.879.776-2.556a5.26 5.26 0 0 1 1.738-1.633c.703-.411 1.494-.703 2.374-.878s1.763-.262 2.653-.262a18.1 18.1 0 0 1 2.451.169 7.53 7.53 0 0 1 2.265.662 4.45 4.45 0 0 1 1.676 1.371c.434.585.652 1.36.652 2.325v8.286a16.47 16.47 0 0 0 .124 2.064c.082.657.227 1.15.434 1.478h-4.468c-.083-.246-.15-.498-.202-.755s-.088-.519-.109-.785a5.74 5.74 0 0 1-2.482 1.509c-.952.288-1.924.431-2.917.431-.765 0-1.479-.092-2.141-.277s-1.241-.472-1.738-.862a4.02 4.02 0 0 1-1.163-1.479c-.28-.596-.419-1.304-.419-2.125 0-.904.16-1.648.481-2.233s.734-1.052 1.241-1.401 1.086-.611 1.738-.785a18.64 18.64 0 0 1 1.97-.416l1.472-.196.483-.05a11.86 11.86 0 0 0 1.707-.277c.496-.123.889-.303 1.179-.539.267-.218.402-.528.405-.93l-.002-.102c0-.472-.077-.847-.232-1.124s-.362-.493-.621-.647-.559-.257-.9-.308-.708-.077-1.102-.077c-.868 0-1.551.185-2.048.554s-.786.986-.868 1.848h-4.407zm9.48 3.619c.28-.092.512-.221.699-.385v1.633c0 .246-.026.575-.078.986a3.28 3.28 0 0 1-.419 1.217c-.227.4-.579.744-1.055 1.032s-1.148.431-2.017.431c-.352 0-.693-.031-1.024-.092s-.62-.169-.869-.323a1.65 1.65 0 0 1-.589-.631c-.145-.267-.218-.596-.218-.986 0-.411.073-.749.218-1.016a1.97 1.97 0 0 1 .574-.662c.238-.175.517-.313.838-.416a7.98 7.98 0 0 1 .977-.246l1.055-.154.261-.033.748-.121c.32-.062.62-.139.899-.231zm17.501-2.91h4.313c-.062-1.027-.31-1.915-.745-2.664s-.998-1.376-1.691-1.879-1.479-.878-2.358-1.124a10.13 10.13 0 0 0-2.746-.37c-1.304 0-2.462.216-3.476.647s-1.872 1.032-2.575 1.802-1.236 1.684-1.598 2.741-.544 2.202-.544 3.434c0 1.191.197 2.284.59 3.28s.941 1.853 1.645 2.572 1.556 1.278 2.56 1.679 2.105.601 3.304.601c2.131 0 3.879-.554 5.245-1.663s2.192-2.721 2.482-4.836h-4.251c-.145.986-.502 1.771-1.071 2.356s-1.381.878-2.436.878c-.682 0-1.261-.154-1.737-.462s-.854-.703-1.133-1.186a5.41 5.41 0 0 1-.605-1.617 8.6 8.6 0 0 1-.186-1.756c0-.595.062-1.196.186-1.802s.336-1.16.636-1.663.688-.914 1.164-1.232 1.065-.477 1.769-.477c1.882 0 2.968.914 3.258 2.741z" fill="#fff"/></g></svg>
